file/rakuten.svg

<svg clip-rule="evenodd" fill-rule="evenodd" stroke-linejoin="round" stroke-miterlimit="1.41421" viewBox="0 0 560 400" xmlns="http://www.w3.org/2000/svg"><path d="m319.3 189.4h-236.9l18.9 18.9zm38-12v-37.8c0-7.1 5-13 12-13 7.1 0 12 5.9 12 13v37.8h14.6v-37.8c0-15.6-10.6-28.1-26.2-28.1-7.1 0-12.5 4-12.5 4v-2.6h-14.6v64.2h14.6v.3zm-48.4-66.1c-17 0-29 14.9-29 33.8 0 19.8 15.1 33.8 30.5 33.8 7.8 0 17.5-2.6 25.7-14.4l-13-7.6c-9.9 14.6-26.7 7.3-28.6-7.6h42c3.8-22.7-11.1-38-27.6-38zm12.8 25.5h-26.2c3-14.9 23.3-15.8 26.2 0zm-46.6 25.2c-1.4.9-3.1 1.7-5 1.7-2.4 0-6.8-1.9-6.8-7.8v-27.6h12.5v-15.3h-12.5v-16.1h-14.6v16.1h-7.8v15.3h7.8v27.6c0 14.4 10.9 22.9 21.7 22.9 4 0 9.7-1.4 14.2-4zm-53.8-49.1v37.8c0 7.1-5 13-12 13-7.1 0-12-5.9-12-13v-37.8h-14.6v37.8c0 15.6 10.6 28.1 26.2 28.1 7.1 0 12.5-4 12.5-4v2.4h14.6v-64.2h-14.7zm-66.1 30.3 25-30.2h-20.3l-17.7 22.4v-43.7h-14.9v85.7h14.9v-26.4l21.7 26.4h20.3zm-50.8-30.3v2.8c-4.5-2.8-8.3-4.5-13.7-4.5-16.5 0-29.3 15.1-29.3 33.8s12.5 33.8 29.3 33.8c5.4 0 9.4-1.7 13.7-4.5v2.8h14.6v-64.2zm-13.9 50.6c-8.3 0-14.2-8-14.2-18.2s5.9-18.2 14.2-18.2 13.9 8 13.9 18.2c.2 10.1-5.7 18.2-13.9 18.2zm-71.1 13.9v-25h10.6l18.7 24.8h19.1l-22.7-30c7.1-5 11.6-13.2 11.6-22.7 0-15.3-12.5-27.6-27.6-27.6h-25v80.3h15.3zm0-65.2h9.9c6.8 0 12.5 5.7 12.5 12.5s-5.7 12.5-12.5 12.5h-9.9z" fill="#bf0000" fill-rule="nonzero" transform="matrix(.918836 0 0 .918836 96.2328 62.1746)"/></svg>

<?xml version="1.0" encoding="UTF-8" standalone="no"?>
<!DOCTYPE svg PUBLIC "-//W3C//DTD SVG 1.1//EN" "http://www.w3.org/Graphics/SVG/1.1/DTD/svg11.dtd">
<svg width="100%" height="100%" viewBox="0 0 560 400" version="1.1" xmlns="http://www.w3.org/2000/svg" xmlns:xlink="http://www.w3.org/1999/xlink" xml:space="preserve" xmlns:serif="http://www.serif.com/" style="fill-rule:evenodd;clip-rule:evenodd;stroke-linejoin:round;stroke-miterlimit:1.41421;">
    <g id="logo" transform="matrix(0.918836,0,0,0.918836,96.2328,62.1746)">
        <path d="M319.3,189.4L82.4,189.4L101.3,208.3L319.3,189.4ZM357.3,177.4L357.3,139.6C357.3,132.5 362.3,126.6 369.3,126.6C376.4,126.6 381.3,132.5 381.3,139.6L381.3,177.4L395.9,177.4L395.9,139.6C395.9,124 385.3,111.5 369.7,111.5C362.6,111.5 357.2,115.5 357.2,115.5L357.2,112.9L342.6,112.9L342.6,177.1L357.2,177.1L357.2,177.4L357.3,177.4ZM308.9,111.3C291.9,111.3 279.9,126.2 279.9,145.1C279.9,164.9 295,178.9 310.4,178.9C318.2,178.9 327.9,176.3 336.1,164.5L323.1,156.9C313.2,171.5 296.4,164.2 294.5,149.3L336.5,149.3C340.3,126.6 325.4,111.3 308.9,111.3ZM321.7,136.8L295.5,136.8C298.5,121.9 318.8,121 321.7,136.8ZM275.1,162C273.7,162.9 272,163.7 270.1,163.7C267.7,163.7 263.3,161.8 263.3,155.9L263.3,128.3L275.8,128.3L275.8,113L263.3,113L263.3,96.9L248.7,96.9L248.7,113L240.9,113L240.9,128.3L248.7,128.3L248.7,155.9C248.7,170.3 259.6,178.8 270.4,178.8C274.4,178.8 280.1,177.4 284.6,174.8L275.1,162ZM221.3,112.9L221.3,150.7C221.3,157.8 216.3,163.7 209.3,163.7C202.2,163.7 197.3,157.8 197.3,150.7L197.3,112.9L182.7,112.9L182.7,150.7C182.7,166.3 193.3,178.8 208.9,178.8C216,178.8 221.4,174.8 221.4,174.8L221.4,177.2L236,177.2L236,113L221.3,113L221.3,112.9ZM155.2,143.2L180.2,113L159.9,113L142.2,135.4L142.2,91.7L127.3,91.7L127.3,177.4L142.2,177.4L142.2,151L163.9,177.4L184.2,177.4L155.2,143.2ZM104.4,112.9L104.4,115.7C99.9,112.9 96.1,111.2 90.7,111.2C74.2,111.2 61.4,126.3 61.4,145C61.4,163.7 73.9,178.8 90.7,178.8C96.1,178.8 100.1,177.1 104.4,174.3L104.4,177.1L119,177.1L119,112.9L104.4,112.9ZM90.5,163.5C82.2,163.5 76.3,155.5 76.3,145.3C76.3,135.1 82.2,127.1 90.5,127.1C98.8,127.1 104.4,135.1 104.4,145.3C104.6,155.4 98.7,163.5 90.5,163.5ZM19.4,177.4L19.4,152.4L30,152.4L48.7,177.2L67.8,177.2L45.1,147.2C52.2,142.2 56.7,134 56.7,124.5C56.7,109.2 44.2,96.9 29.1,96.9L4.1,96.9L4.1,177.2L19.4,177.2L19.4,177.4ZM19.4,112.2L29.3,112.2C36.1,112.2 41.8,117.9 41.8,124.7C41.8,131.5 36.1,137.2 29.3,137.2L19.4,137.2L19.4,112.2Z" style="fill:rgb(191,0,0);fill-rule:nonzero;"/>
    </g>
</svg>
